img/svg/hero1.svg

<svg width="720" height="690" viewBox="0 0 720 690" fill="none" xmlns="http://www.w3.org/2000/svg">
<path d="M33.1836 302.956C37.1747 302.956 40.4102 299.856 40.4102 296.031C40.4102 292.206 37.1747 289.105 33.1836 289.105C29.1925 289.105 25.957 292.206 25.957 296.031C25.957 299.856 29.1925 302.956 33.1836 302.956Z" stroke="black" stroke-width="3.38258"/>
<path d="M47.3472 296.734C61.9234 295.296 84.7948 296.996 87.4981 307.802C90.2014 318.607 79.8786 322.559 74.3795 323.184C53.4428 326.373 25.6816 324.873 25.6816 307.802" stroke="black" stroke-width="3.38258" stroke-linecap="round"/>
<path d="M42.0798 313.076C43.0008 313.076 43.7474 312.361 43.7474 311.478C43.7474 310.595 43.0008 309.88 42.0798 309.88C41.1587 309.88 40.4121 310.595 40.4121 311.478C40.4121 312.361 41.1587 313.076 42.0798 313.076Z" stroke="black" stroke-width="3.38258"/>
<path d="M58.1988 311.478C58.1988 312.254 57.4441 313.076 56.2532 313.076C55.0624 313.076 54.3076 312.254 54.3076 311.478C54.3076 310.702 55.0624 309.88 56.2532 309.88C57.4441 309.88 58.1988 310.702 58.1988 311.478Z" stroke="black" stroke-width="3.38258"/>
<path d="M70.4284 313.076C71.3494 313.076 72.0961 312.361 72.0961 311.478C72.0961 310.595 71.3494 309.88 70.4284 309.88C69.5074 309.88 68.7607 310.595 68.7607 311.478C68.7607 312.361 69.5074 313.076 70.4284 313.076Z" stroke="black" stroke-width="3.38258"/>
<path d="M581.57 107.975C585.254 107.975 588.24 105.113 588.24 101.582C588.24 98.0516 585.254 95.1895 581.57 95.1895C577.885 95.1895 574.899 98.0516 574.899 101.582C574.899 105.113 577.885 107.975 581.57 107.975Z" stroke="black" stroke-width="3.38258"/>
<path d="M594.675 95.9951C599.563 95.9951 613.531 95.9951 620.101 95.9951C625.423 95.9951 627.985 97.1234 627.985 105.021C627.985 112.693 627.919 122.633 627.985 126.644C628.031 129.464 626.566 132.586 621.678 133.037C616.789 133.488 597.171 133.225 587.973 133.037C584.556 133.037 578.512 131.181 578.512 123.635V115.174" stroke="black" stroke-width="3.38258" stroke-linecap="round"/>
<path d="M591.296 109.307L603.525 117.298" stroke="black" stroke-width="3.38258" stroke-linecap="round"/>
<path d="M603.529 117.3L625.764 97.5889" stroke="black" stroke-width="3.38258" stroke-linecap="round"/>
<path d="M609.163 112.504L615.239 118.364L621.315 124.224" stroke="black" stroke-width="3.38258" stroke-linecap="round"/>
<path d="M586.85 124.224L595.815 112.504" stroke="black" stroke-width="3.38258" stroke-linecap="round"/>
<path d="M630.455 507.514C628.608 509.287 627.015 510.815 625.918 511.868C623.058 514.613 620.054 513.012 618.91 511.868L600.662 495.019C597.968 492.619 595.692 490.249 585.509 480.941C584.467 479.94 582.815 477.386 584.547 475.17C586.279 472.954 596.012 461.322 600.662 455.782C602.073 453.824 605.138 451.495 609.048 454.979C612.416 457.979 623.961 468.365 633.823 476.262" stroke="black" stroke-width="3.38258" stroke-linecap="round"/>
<path d="M600.47 456.38C601.043 466.486 604.914 482.754 624.929 488.876" stroke="black" stroke-width="3.38258" stroke-linecap="round"/>
<path d="M651.226 489.662C650.309 487.427 643.265 484.825 640.603 489.662C637.86 494.651 639.958 498.854 641.742 499.678C644.021 500.73 647.368 501.28 650.903 495.224" stroke="black" stroke-width="3.38258" stroke-linecap="round"/>
<path d="M651.809 486.552C651.603 487.719 651.392 488.21 651.225 489.662C651.009 491.554 650.87 493.538 650.903 495.224C650.97 498.184 651.581 500.227 653.316 499.241C656.795 497.264 658.674 495.642 659.175 493.989C660.008 491.207 660.014 485.882 655.322 482.401C649.663 478.197 643.282 478.312 638.262 482.401C633.278 486.459 631.915 492.956 632.188 496.327C632.486 500.014 635.358 507.933 644.727 508.056C654.094 508.18 659.169 503.34 659.947 501.074" stroke="black" stroke-width="3.38258" stroke-linecap="round"/>
<path d="M157.983 423.121C155.984 415.727 149.348 402.092 138.795 406.701C128.241 411.31 134.397 419.568 138.795 423.121C141.754 425.042 148.116 427.096 149.888 419.952C151.66 412.808 144.192 409.869 142.093 413.039C140.986 414.287 139.736 417.417 143.592 419.952" stroke="black" stroke-width="3.38258" stroke-linecap="round"/>
<path d="M205.079 67.8473C204.605 65.1731 207.3 63.0963 209.732 64.1423L209.967 64.2535L214.945 66.8345C216.921 67.8592 219.275 67.8452 221.24 66.7979L226.188 64.1606C228.662 62.8418 231.575 64.9322 231.117 67.698L230.201 73.2302C229.837 75.4269 230.578 77.662 232.181 79.207L236.219 83.0975C238.237 85.043 237.149 88.4586 234.377 88.8776L228.832 89.7155C226.631 90.0483 224.733 91.4435 223.759 93.4458L221.307 98.4881C220.081 101.009 216.496 101.03 215.241 98.5233L212.731 93.5093C211.734 91.5183 209.821 90.1449 207.616 89.8373L202.062 89.0629C199.285 88.6756 198.158 85.2723 200.155 83.3039L204.147 79.3669C205.633 77.9013 206.355 75.8384 206.119 73.7798L206.059 73.3683L205.079 67.8473Z" stroke="black" stroke-width="3.38258"/>
<path d="M376.725 316.581V363.832" stroke="black" stroke-width="3.38258" stroke-linecap="round"/>
<path d="M412.301 322.141V367.168" stroke="black" stroke-width="3.38258" stroke-linecap="round"/>
<path d="M329.089 504.33C317.341 505.732 289.84 510.902 283.816 521.415C282.009 524.569 279.912 532.244 285.984 537.711C292.057 543.178 303.154 541.741 307.943 540.339L335.867 529.563" stroke="black" stroke-width="3.38258" stroke-linecap="round"/>
<path d="M489.179 424.99C467.259 425.666 370.445 470.583 324.778 492.958C320.889 517.612 337.299 535.315 345.991 541.084C391.511 528.419 484.936 502.752 494.483 501.401C504.029 500.05 513.486 493.521 517.021 490.425C541.77 462.731 523.503 439.203 511.276 430.9C502.572 424.99 495.058 424.808 489.179 424.99Z" fill="black"/>
<path d="M283.853 418.707C299.384 419.7 367.136 444.864 399.238 458.052L325.821 493.21C292.965 502.444 272.781 499.402 266.617 497.411C231.036 480.983 244.977 440.455 259.113 425.442C268.225 418.01 278.288 418.351 283.853 418.707Z" fill="black"/>
<path d="M456.709 509.119C466.416 513.589 471.664 519.446 474.325 524.25C480.028 536.758 469.788 544.276 458.097 540.741C451.637 538.788 450.114 537.478 446.692 534.759C444.955 533.379 436.846 526.157 427.588 517.629" stroke="black" stroke-width="3.38258" stroke-linecap="round"/>
<path d="M270.962 320.843L277.174 433.733C277.667 442.699 285.082 449.717 294.061 449.717H479.883C489.224 449.717 496.796 442.145 496.796 432.804V317.325C496.796 307.895 489.084 300.287 479.655 300.414L287.621 303.002C278.006 303.132 270.433 311.242 270.962 320.843Z" fill="black"/>
<rect x="276.664" y="451.664" width="220.132" height="10.5619" rx="5.28095" fill="black"/>
<path d="M412.856 241.536C432.22 241.258 474.838 255.989 491.793 302.406" stroke="black" stroke-width="3.38258" stroke-linecap="round"/>
<path d="M370.332 241.262C326.138 249.878 305.015 268.778 288.338 305.189" stroke="black" stroke-width="3.38258" stroke-linecap="round"/>
<path d="M518.198 285.225L529.038 267.158" stroke="black" stroke-width="3.38258" stroke-linecap="round"/>
<path d="M529.037 290.226L543.768 277.996" stroke="black" stroke-width="3.38258" stroke-linecap="round"/>
<path d="M531.262 298.564C534.134 299.676 540.656 300.732 543.769 296.062" stroke="black" stroke-width="3.38258" stroke-linecap="round"/>
<path d="M246.924 281.843L230.247 264.61" stroke="black" stroke-width="3.38258" stroke-linecap="round"/>
<path d="M263.877 279.058L253.871 253.209" stroke="black" stroke-width="3.38258" stroke-linecap="round"/>
<path d="M242.755 291.571L230.247 286.846" stroke="black" stroke-width="3.38258" stroke-linecap="round"/>
<path d="M502.911 333.589C513.195 349.71 524.868 368.888 502.911 404.973" stroke="black" stroke-width="3.38258" stroke-linecap="round"/>
<path d="M413.134 242.927C415.635 235.701 413.356 230.838 411.133 229.911C397.792 242.141 377.557 237.601 370.052 230.189C367.384 232.635 368.941 239.87 370.052 242.093C384.505 258.103 405.073 249.135 413.134 242.927Z" fill="black"/>
<path d="M353.933 287.399L355.054 285.679C361.347 276.02 373.594 272.163 384.286 276.474V276.474C393.886 280.345 404.886 277.66 411.622 269.801L420.362 259.604" stroke="black" stroke-width="3.38258" stroke-linecap="round"/>
<path d="M266.935 343.817C262.766 353.638 257.819 377.449 271.383 394.125" stroke="black" stroke-width="3.38258" stroke-linecap="round"/>
<path d="M451.46 129.306C445.345 151.264 442.287 153.21 433.393 162.938C433.393 153.324 431.741 137.186 431.741 130.467C402.619 130.467 378.041 118.578 369.392 112.634C369.702 132.793 350.804 145.973 350.804 145.973C350.804 145.973 353.515 154.114 355.064 172.335C356.303 186.911 352.74 184.094 350.804 180.863C345.227 162.876 336.087 167.683 332.215 172.335C284.693 95.1191 357.774 80.1995 371.716 81.6209C382.249 72.6271 396.939 65.579 407.266 64.5452C444.511 60.8169 461.374 93.7028 451.46 129.306Z" fill="black"/>
<path d="M351.456 194.608C356.459 225.151 390.039 247.114 414.271 222.372C438.504 197.63 433.654 152.34 431.065 131.206" stroke="black" stroke-width="3.38258" stroke-linecap="round"/>
<path d="M331.666 170.441C328.609 177.946 331.477 194.575 351.456 194.575" stroke="black" stroke-width="3.38258" stroke-linecap="round"/>
<path d="M340.477 174.566C340.035 176.172 340.389 179.977 345.34 182.349" stroke="black" stroke-width="3.38258" stroke-linecap="round"/>
<path d="M430.391 190.688C436.912 187.97 441.509 177.903 439.74 161.782" stroke="black" stroke-width="3.38258" stroke-linecap="round"/>
<path d="M393.702 209.033C400.095 210.7 399.691 206.111 404.542 202.084" stroke="black" stroke-width="3.38258" stroke-linecap="round"/>
<ellipse cx="412.787" cy="170.197" rx="4.16917" ry="4.16917" fill="black"/>
<ellipse cx="376.098" cy="170.754" rx="4.16917" ry="4.16917" fill="black"/>
<path d="M367.019 161.225C367.896 158.642 371.682 153.863 379.804 155.413" stroke="black" stroke-width="3.38258" stroke-linecap="round"/>
<path d="M405.931 156.218C407.868 154.54 413.138 152.191 418.717 156.218" stroke="black" stroke-width="3.38258" stroke-linecap="round"/>
<path d="M392.483 167.896C391.835 173.384 391.395 184.515 394.813 185.128" stroke="black" stroke-width="3.38258" stroke-linecap="round"/>
<path d="M552.663 420.026C626.874 440.594 760.177 464.219 699.696 394.177C680.61 375.369 652.445 353.319 607.14 333.863" stroke="black" stroke-width="3.38258" stroke-linecap="round"/>
<path d="M632.989 276.323C679.127 246.768 753.45 185.713 681.629 177.931C609.808 170.148 544.232 197.109 520.421 211.562" stroke="black" stroke-width="3.38258" stroke-linecap="round"/>
<path d="M454.27 233.132C484.844 167.259 534.318 30.7327 487.623 11.6101C429.255 -12.2931 353.654 56.6372 291.95 221.18" stroke="black" stroke-width="3.38258" stroke-linecap="round"/>
<path d="M223.954 176.39C155.58 138.96 15.9959 81.3882 4.65578 150.541C-6.68436 219.693 131.862 277.376 202.552 297.573" stroke="black" stroke-width="3.38258" stroke-linecap="round"/>
<path d="M220.704 333.863C120.922 384.727 -4.10345 455.072 65.1492 491.736C93.4992 506.745 166.043 497.573 199.396 483.953" stroke="black" stroke-width="3.38258" stroke-linecap="round"/>
<ellipse cx="383.952" cy="666.837" rx="137.583" ry="16.6767" fill="black"/>
</svg>

<svg xmlns="http://www.w3.org/2000/svg" fill="none" viewBox="0 0 720 690"><path stroke="#000" stroke-width="3.38" d="M33.18 302.96c4 0 7.23-3.1 7.23-6.93 0-3.82-3.24-6.92-7.23-6.92s-7.22 3.1-7.22 6.92c0 3.83 3.23 6.93 7.22 6.93Z"/><path stroke="#000" stroke-linecap="round" stroke-width="3.38" d="M47.35 296.73c14.57-1.43 37.44.27 40.15 11.07 2.7 10.8-7.62 14.76-13.12 15.38-20.94 3.2-48.7 1.7-48.7-15.38"/><path stroke="#000" stroke-width="3.38" d="M42.08 313.08c.92 0 1.67-.72 1.67-1.6 0-.88-.75-1.6-1.67-1.6-.92 0-1.67.72-1.67 1.6 0 .88.75 1.6 1.67 1.6Zm16.12-1.6c0 .77-.76 1.6-1.95 1.6s-1.94-.83-1.94-1.6c0-.78.75-1.6 1.94-1.6 1.2 0 1.95.82 1.95 1.6Zm12.23 1.6c.92 0 1.67-.72 1.67-1.6 0-.88-.75-1.6-1.67-1.6-.92 0-1.67.72-1.67 1.6 0 .88.75 1.6 1.67 1.6Zm511.14-205.11a6.54 6.54 0 0 0 6.67-6.39c0-3.53-2.99-6.4-6.67-6.4a6.54 6.54 0 0 0-6.67 6.4c0 3.53 2.99 6.4 6.67 6.4Z"/><path stroke="#000" stroke-linecap="round" stroke-width="3.38" d="M594.67 96h25.43c5.32 0 7.88 1.12 7.88 9.02 0 7.67-.06 17.61 0 21.62.05 2.82-1.41 5.95-6.3 6.4-4.9.45-24.5.19-33.7 0-3.42 0-9.47-1.86-9.47-9.4v-8.47m12.79-5.87 12.23 8m0 0 22.23-19.71m-16.6 14.91 6.08 5.86 6.08 5.86m-34.47 0 8.97-11.72m34.64 395.01-4.54 4.36c-2.86 2.74-5.87 1.14-7.01 0l-18.25-16.85c-2.7-2.4-4.97-4.77-15.15-14.08-1.04-1-2.7-3.55-.96-5.77 1.73-2.22 11.46-13.85 16.11-19.39 1.41-1.96 4.48-4.28 8.39-.8 3.37 3 14.91 13.38 24.77 21.28"/><path stroke="#000" stroke-linecap="round" stroke-width="3.38" d="M600.47 456.38c.57 10.1 4.44 26.37 24.46 32.5m26.3.78c-.92-2.23-7.97-4.84-10.63 0-2.74 5-.64 9.2 1.14 10.02 2.28 1.05 5.63 1.6 9.16-4.46"/><path stroke="#000" stroke-linecap="round" stroke-width="3.38" d="M651.8 486.55c-.2 1.17-.4 1.66-.57 3.11-.22 1.9-.36 3.88-.33 5.56.07 2.96.68 5 2.42 4.02 3.47-1.98 5.35-3.6 5.85-5.25.84-2.78.84-8.1-3.85-11.59-5.66-4.2-12.04-4.09-17.06 0-4.98 4.06-6.35 10.56-6.07 13.93.3 3.68 3.17 11.6 12.54 11.73 9.36.12 14.44-4.72 15.22-6.99m-501.97-77.95c-2-7.4-8.63-21.03-19.19-16.42-10.55 4.61-4.4 12.87 0 16.42 2.96 1.92 9.33 3.98 11.1-3.17 1.77-7.14-5.7-10.08-7.8-6.91-1.1 1.25-2.35 4.38 1.5 6.91"/><path stroke="#000" stroke-width="3.38" d="M205.08 67.85a3.38 3.38 0 0 1 4.65-3.7l.24.1 4.97 2.58a6.76 6.76 0 0 0 6.3-.03l4.95-2.64a3.38 3.38 0 0 1 4.93 3.54l-.92 5.53a6.77 6.77 0 0 0 1.98 5.98l4.04 3.89a3.38 3.38 0 0 1-1.84 5.78l-5.55.84a6.77 6.77 0 0 0-5.07 3.73l-2.45 5.04a3.38 3.38 0 0 1-6.07.03l-2.5-5.01c-1-2-2.92-3.37-5.12-3.67l-5.56-.78a3.38 3.38 0 0 1-1.9-5.76l3.99-3.93a6.77 6.77 0 0 0 1.97-5.59l-.06-.41-.98-5.52Z"/><path stroke="#000" stroke-linecap="round" stroke-width="3.38" d="M376.73 316.58v47.25m35.57-41.69v45.03m-83.21 137.16c-11.75 1.4-39.25 6.57-45.27 17.08-1.81 3.16-3.9 10.83 2.16 16.3 6.08 5.47 17.17 4.03 21.96 2.63l27.93-10.78"/><path fill="#000" d="M489.18 424.99c-21.92.68-118.74 45.6-164.4 67.97-3.9 24.65 12.52 42.36 21.21 48.12 45.52-12.66 138.95-38.33 148.5-39.68 9.54-1.35 19-7.88 22.53-10.97 24.75-27.7 6.48-51.23-5.74-59.53-8.7-5.91-16.22-6.1-22.1-5.91Z"/><path fill="#000" d="M283.85 418.7c15.53 1 83.29 26.16 115.39 39.35l-73.42 35.16c-32.86 9.23-53.04 6.2-59.2 4.2-35.58-16.43-21.64-56.96-7.5-71.97 9.1-7.43 19.17-7.09 24.73-6.73Z"/><path stroke="#000" stroke-linecap="round" stroke-width="3.38" d="M456.7 509.12c9.72 4.47 14.96 10.33 17.63 15.13 5.7 12.5-4.54 20.03-16.23 16.5-6.46-1.96-7.99-3.27-11.4-6-1.75-1.37-9.85-8.6-19.11-17.12"/><path fill="#000" d="m270.96 320.84 6.21 112.9a16.92 16.92 0 0 0 16.9 15.98h185.81c9.34 0 16.92-7.58 16.92-16.92V317.32a16.9 16.9 0 0 0-17.15-16.9L287.63 303a16.91 16.91 0 0 0-16.66 17.84Z"/><rect width="220.13" height="10.56" x="276.66" y="451.66" fill="#000" rx="5.28"/><path stroke="#000" stroke-linecap="round" stroke-width="3.38" d="M412.86 241.54c19.36-.28 61.98 14.45 78.93 60.87m-121.46-61.15c-44.2 8.62-65.31 27.52-82 63.93m229.87-19.96 10.84-18.07m0 23.07L543.77 278m-12.51 20.56c2.87 1.12 9.4 2.17 12.5-2.5m-296.84-14.22-16.67-17.23m33.63 14.45-10-25.85m-11.13 38.36-12.5-4.72m272.66 46.74c10.29 16.12 21.96 35.3 0 71.38"/><path fill="#000" d="M413.13 242.93c2.5-7.23.23-12.1-2-13.02-13.34 12.23-33.57 7.7-41.08.28-2.67 2.44-1.1 9.68 0 11.9 14.45 16.01 35.02 7.04 43.08.84Z"/><path stroke="#000" stroke-linecap="round" stroke-width="3.38" d="m353.93 287.4 1.12-1.72a24.12 24.12 0 0 1 29.24-9.2v0a24.12 24.12 0 0 0 27.33-6.68l8.74-10.2m-153.42 84.22c-4.17 9.82-9.12 33.63 4.44 50.3"/><path fill="#000" d="M451.46 129.3c-6.11 21.96-9.17 23.91-18.07 33.64 0-9.62-1.65-25.75-1.65-32.47-29.12 0-53.7-11.9-62.35-17.84.31 20.16-18.59 33.34-18.59 33.34s2.71 8.14 4.26 26.37c1.24 14.57-2.32 11.75-4.26 8.52-5.57-17.98-14.71-13.18-18.59-8.53-47.52-77.21 25.56-92.13 39.5-90.7 10.54-9 25.23-16.05 35.56-17.08 37.24-3.73 54.1 29.15 44.19 64.76Z"/><path stroke="#000" stroke-linecap="round" stroke-width="3.38" d="M351.46 194.6c5 30.55 38.58 52.51 62.81 27.77 24.23-24.74 19.38-70.03 16.8-91.16m-99.4 39.23c-3.06 7.5-.2 24.13 19.79 24.13m-10.98-20c-.44 1.6-.1 5.4 4.86 7.78"/><path stroke="#000" stroke-linecap="round" stroke-width="3.38" d="M430.4 190.69c6.51-2.72 11.1-12.79 9.34-28.9m-46.04 47.24c6.4 1.67 6-2.92 10.84-6.95"/><circle cx="412.79" cy="170.2" r="4.17" fill="#000"/><circle cx="376.1" cy="170.75" r="4.17" fill="#000"/><path stroke="#000" stroke-linecap="round" stroke-width="3.38" d="M367.02 161.22c.88-2.58 4.66-7.36 12.78-5.8m26.13.8c1.94-1.68 7.2-4.03 12.79 0m-26.24 11.68c-.65 5.48-1.09 16.61 2.33 17.23m157.85 234.9c74.21 20.56 207.52 44.19 147.04-25.85-19.09-18.81-47.25-40.86-92.56-60.32m25.85-57.54c46.14-29.55 120.46-90.6 48.64-98.39-71.82-7.78-137.4 19.18-161.2 33.63"/><path stroke="#000" stroke-linecap="round" stroke-width="3.38" d="M454.27 233.13c30.57-65.87 80.05-202.4 33.35-221.52-58.37-23.9-133.97 45.03-195.67 209.57m-68-44.79c-68.37-37.43-207.95-95-219.3-25.85-11.33 69.15 127.21 126.84 197.9 147.03m18.15 36.29C120.92 384.73-4.1 455.07 65.15 491.74c28.35 15 100.9 5.83 134.25-7.79"/><ellipse cx="383.95" cy="666.84" fill="#000" rx="137.58" ry="16.68"/></svg>
